icon/lg/chargebee.svg

<?xml version="1.0" encoding="UTF-8"?>
<svg viewBox="0 0 512 158" version="1.1" xmlns="http://www.w3.org/2000/svg" xmlns:xlink="http://www.w3.org/1999/xlink" preserveAspectRatio="xMidYMid" height="1em" width="1em">
  <g>
    <path d="M509.399747,80.3267441 C506.711647,78.5873855 503.23293,79.2198795 501.335448,81.9079792 C501.019201,82.3823498 494.061766,92.5022546 481.886256,92.5022546 C477.14255,92.5022546 473.505709,91.0791429 471.133857,88.0747962 C470.975733,87.9166727 470.81761,87.6004257 470.659486,87.4423022 C470.659486,87.4423022 470.81761,87.4423022 470.81761,87.2841787 C499.596089,70.8393334 499.279842,56.7663408 498.014854,51.5482649 C496.275495,45.2233244 490.741172,41.1121131 483.625614,41.1121131 C467.180769,41.1121131 456.270247,59.4544405 456.270247,76.5317798 C456.270247,78.745509 456.42837,80.8011147 456.744617,82.8567203 C450.894047,87.1260551 441.881007,92.5022546 433.974831,92.5022546 C429.38925,92.5022546 425.910532,91.0791429 423.696803,88.3910432 C422.906186,87.4423022 422.273692,86.3354376 421.799321,85.228573 C443.778489,78.9036325 452.159035,64.8306399 450.5778,53.6038706 C449.629059,46.330189 444.094736,41.1121131 437.295425,41.1121131 C421.957445,41.1121131 410.888799,57.2407114 409.14944,73.0530626 C406.145093,72.7368155 403.615117,71.946198 401.243264,70.3649629 C401.559511,67.8349867 401.875758,65.3050105 401.875758,62.9331578 C401.875758,57.7150819 400.927017,53.2876236 399.029535,49.8089063 C396.499559,45.2233244 392.230224,42.6933483 387.328395,42.6933483 C384.640296,42.6933483 382.268443,44.1164599 380.845331,46.6464361 C377.999108,51.864512 379.89659,61.9844167 385.114666,70.0487158 C386.063407,71.629951 387.170272,73.0530626 388.43526,74.4761742 C385.589037,83.6473379 379.580343,92.344131 371.990415,92.344131 C368.511697,92.344131 365.981721,91.2372665 363.767992,89.0235373 C360.763645,85.7029435 358.70804,79.8523736 358.075546,72.4205685 C379.580343,45.5395715 390.174619,19.132945 384.165925,6.64118751 C382.110319,2.37185268 378.315355,0 373.729773,0 C358.866163,0 350.011247,19.2910685 346.532529,58.98007 C346.374406,61.3519227 346.216282,64.3562694 346.216282,67.5187396 C338.310107,78.2711385 325.185855,92.344131 313.484715,92.344131 C310.164122,92.344131 307.634145,91.2372665 306.05291,88.8654138 C305.894787,88.7072903 305.736663,88.3910432 305.57854,88.2329197 C305.736663,88.2329197 305.894787,88.0747962 306.05291,87.9166727 C334.989513,69.2580983 334.515142,55.1851057 333.092031,50.1251533 C331.510796,44.5908304 326.450843,40.9539896 319.967779,40.9539896 C303.206687,40.9539896 291.821794,60.2450581 291.821794,78.2711385 C291.821794,79.8523736 291.979918,81.4336087 292.138041,83.0148438 C286.761842,86.8098081 282.492507,90.2885254 278.223172,93.6091191 C278.855666,88.7072903 279.804407,82.3823498 280.911272,73.0530626 L280.911272,73.0530626 C281.227519,71.1555804 281.385642,69.5743453 281.543766,68.7837277 C282.492507,61.9844167 271.265738,60.5613051 270.000749,68.1512337 C268.735761,76.0574093 265.415168,92.344131 256.08588,92.344131 C250.551557,92.344131 247.547211,86.1773141 248.179705,77.1642739 C248.970322,62.9331578 256.718374,51.3901414 266.205785,51.3901414 C269.526379,51.3901414 271.107614,54.8688587 271.107614,54.8688587 C274.111961,60.2450581 283.441248,55.6594762 281.385642,49.9670298 C280.436901,47.4370536 277.432555,40.9539896 266.522032,40.9539896 C244.38474,40.9539896 237.427306,63.4075283 236.478565,78.2711385 C236.320441,80.6429911 236.320441,83.0148438 236.636688,85.3866965 C233.474218,89.1816608 229.837377,92.344131 226.200537,92.344131 C222.721819,92.344131 220.50809,88.3910432 221.773078,79.3780031 C223.038066,70.6812099 223.986807,63.5656518 224.461178,59.4544405 C227.149278,40.6377426 203.588874,41.1121131 203.588874,41.1121131 C203.588874,41.1121131 203.272627,30.0434673 194.259587,30.0434673 C189.674005,30.0434673 185.40467,33.6803081 185.40467,40.4796191 C185.40467,46.8045596 190.622746,49.9670298 190.622746,49.9670298 L190.622746,49.9670298 C189.515882,59.7706876 184.9303,92.344131 174.652272,92.344131 C170.06669,92.344131 169.750443,87.4423022 170.224813,83.9635849 C170.857307,79.2198795 171.647925,70.9974569 171.964172,68.9418513 C172.912913,62.1425402 161.686144,60.7194286 160.421156,68.3093572 C159.156167,76.2155328 155.835574,92.5022546 146.506287,92.5022546 C140.971964,92.5022546 137.967617,85.54482 138.441987,77.0061504 C139.232605,62.6169108 146.980657,51.5482649 156.468068,51.5482649 C159.788662,51.5482649 161.369897,55.0269822 161.369897,55.0269822 C163.899873,60.4031816 173.545407,56.6082173 171.647925,50.1251533 C170.857307,47.2789301 167.694837,41.1121131 156.784315,41.1121131 C134.647023,41.1121131 127.689589,63.5656518 126.740848,78.429262 C126.582724,80.8011147 126.582724,83.0148438 126.740848,85.0704495 C123.578377,89.3397843 119.783413,92.5022546 116.146572,92.5022546 C112.825978,92.5022546 110.296002,90.7628959 110.928496,83.3310909 C111.244743,79.8523736 115.197831,55.9757233 115.039708,51.7063884 C114.565337,44.4327069 111.244743,41.2702366 103.180444,41.2702366 C94.6417746,41.2702366 88.3168341,45.697695 85.6287344,48.3857947 C85.6287344,48.3857947 89.5818222,18.3423274 90.3724397,12.4917575 C91.1630573,6.48306399 79.4619174,6.32494048 78.8294234,12.4917575 C78.5131763,15.1798572 75.3507061,38.898384 72.5044829,61.0356757 C65.8632954,75.5830388 52.7390439,97.7203305 33.2898519,97.7203305 C-3.55292642,97.7203305 13.3662894,17.3935863 47.9953385,17.3935863 C56.0596376,17.3935863 52.4227968,30.3597143 47.0465974,38.1077664 C43.2516331,43.8002128 52.8971674,50.1251533 58.2733668,41.1121131 C73.1369769,15.9704747 60.6452195,6.64118751 48.7859561,6.64118751 C-2.44606183,6.64118751 -21.4208833,108.788976 31.8667403,108.788976 C49.4184501,108.788976 61.2777135,98.9853185 68.8676421,88.2329197 C68.0770245,94.2416132 67.602654,98.3528245 67.4445305,99.1434421 C66.4957894,105.468383 78.3550528,104.994012 78.9875469,99.6178126 C79.4619174,96.2972188 81.201276,82.2242263 82.6243877,71.3137039 C83.4150052,65.146887 91.0049338,53.7619941 99.5436034,53.7619941 C101.599209,53.7619941 102.864197,55.8175998 102.706074,57.5569584 C102.389827,59.612564 98.7529859,86.3354376 98.9111094,90.2885254 C99.5436034,101.515295 107.607903,104.045271 115.197831,104.045271 C121.206525,104.045271 126.108353,101.199048 130.061441,96.7715894 C132.749541,101.199048 136.860752,104.045271 142.553199,104.045271 C155.361203,104.045271 159.788662,94.8741072 159.788662,94.8741072 C159.788662,94.8741072 161.369897,104.045271 172.438542,104.045271 C194.892081,104.045271 200.110157,64.9887635 201.217022,51.864512 C202.48201,51.864512 210.388185,52.3388825 211.811297,56.7663408 C213.076285,61.0356757 209.123197,74.6342977 208.80695,88.7072903 C208.648827,96.1390953 211.336926,104.045271 223.038066,104.045271 C230.153624,104.045271 235.846071,100.724677 239.799159,97.0878364 C242.487258,101.357171 246.59847,104.045271 252.132793,104.045271 C258.457733,104.045271 262.727068,101.989665 265.415168,99.9340596 C265.257044,101.199048 265.098921,102.305912 264.940797,103.5709 L264.940797,103.729024 C264.940797,103.5709 235.3717,124.917575 235.3717,144.999261 C235.3717,152.905436 239.008541,157.965389 248.337828,157.965389 C266.838279,157.965389 272.688849,133.139997 275.376949,112.742064 C275.535072,111.793323 275.693196,110.844582 275.693196,110.053964 C278.539419,107.840235 281.227519,105.78463 283.915618,103.729024 C287.710583,100.724677 291.505547,97.878454 295.774882,94.7159837 C295.933005,95.0322307 296.249252,95.3484778 296.407376,95.6647248 C300.360464,101.040924 306.211034,103.887147 313.326592,103.887147 C326.76709,103.887147 339.258848,93.6091191 348.113764,83.4892144 C349.536876,88.3910432 351.592482,93.1347486 355.071199,96.9297129 C359.340534,101.515295 365.191104,104.045271 371.832291,104.045271 C384.640296,104.045271 393.495212,93.7672426 398.238918,81.9079792 C401.717635,83.4892144 405.670723,84.4379554 409.781934,84.7542025 C410.730675,88.8654138 412.31191,92.6603781 414.841886,95.6647248 C418.004357,99.4596891 423.854927,104.045271 434.132955,104.045271 C444.410983,104.045271 454.530888,98.510948 461.330199,93.9253662 C461.646446,94.3997367 461.962693,94.8741072 462.27894,95.3484778 C465.44141,99.3015656 471.608227,104.045271 482.044379,104.045271 C500.54483,104.045271 510.822858,88.8654138 511.297229,88.2329197 C512.72034,85.7029435 511.929723,82.0661028 509.399747,80.3267441 Z M249.76094,146.738619 C248.021581,146.738619 246.756593,145.631755 246.756593,143.418025 C246.756593,133.298121 262.410821,119.541375 262.568944,119.541375 C260.671462,133.139997 255.137139,146.738619 249.76094,146.738619 Z M319.651532,51.864512 C321.074644,51.864512 321.390891,52.9713765 321.707138,53.6038706 C322.339632,55.8175998 320.125903,64.1981459 303.206687,75.8992858 C304.155428,64.8306399 310.954739,51.864512 319.651532,51.864512 Z M373.413526,11.8592634 C378.315355,11.8592634 374.362267,28.6203557 358.70804,52.0226355 C362.34488,20.8723036 367.404833,11.8592634 373.413526,11.8592634 Z M436.030437,51.864512 C438.560413,51.864512 438.718537,54.3944881 438.87666,55.3432292 C439.509154,60.0869346 435.081696,68.6256042 420.534333,73.5274331 C422.115568,63.2494048 428.914879,51.864512 436.030437,51.864512 Z M483.467491,51.864512 C485.206849,51.864512 486.15559,53.1295001 486.629961,54.7107352 C487.578702,58.0313289 483.151244,66.4118751 467.65514,75.8992858 C467.971387,64.8306399 474.612574,51.864512 483.467491,51.864512 Z" fill="#222222" fill-rule="nonzero"/>
  </g>
</svg>

<svg width="512" height="158" xmlns="http://www.w3.org/2000/svg" preserveAspectRatio="xMidYMid"><path d="M509.4 80.327c-2.688-1.74-6.167-1.107-8.065 1.581-.316.474-7.273 10.594-19.449 10.594-4.743 0-8.38-1.423-10.752-4.427-.158-.158-.316-.475-.475-.633 0 0 .159 0 .159-.158 28.778-16.445 28.462-30.518 27.197-35.736-1.74-6.325-7.274-10.436-14.39-10.436-16.444 0-27.355 18.342-27.355 35.42 0 2.214.158 4.27.475 6.325-5.851 4.27-14.864 9.645-22.77 9.645-4.586 0-8.064-1.423-10.278-4.111-.79-.949-1.423-2.056-1.898-3.162 21.98-6.325 30.36-20.398 28.779-31.625-.949-7.274-6.483-12.492-13.283-12.492-15.338 0-26.406 16.129-28.146 31.941-3.004-.316-5.534-1.107-7.906-2.688.317-2.53.633-5.06.633-7.432 0-5.218-.949-9.645-2.846-13.124-2.53-4.586-6.8-7.116-11.702-7.116-2.688 0-5.06 1.423-6.483 3.953-2.846 5.219-.948 15.338 4.27 23.403.948 1.581 2.055 3.004 3.32 4.427-2.846 9.171-8.855 17.868-16.445 17.868-3.478 0-6.008-1.107-8.222-3.32-3.004-3.321-5.06-9.172-5.692-16.603 21.504-26.881 32.099-53.288 26.09-65.78C382.11 2.371 378.316 0 373.73 0c-14.864 0-23.719 19.291-27.197 58.98-.159 2.372-.317 5.376-.317 8.539-7.906 10.752-21.03 24.825-32.731 24.825-3.32 0-5.85-1.107-7.432-3.479-.158-.158-.316-.474-.474-.632.158 0 .316-.158.474-.316 28.937-18.659 28.462-32.732 27.039-37.792-1.581-5.534-6.641-9.171-13.124-9.171-16.761 0-28.146 19.291-28.146 37.317 0 1.581.158 3.163.316 4.744-5.376 3.795-9.645 7.274-13.915 10.594.633-4.902 1.581-11.227 2.688-20.556.317-1.897.475-3.479.633-4.27.949-6.799-10.278-8.222-11.543-.632-1.265 7.906-4.586 24.193-13.915 24.193-5.534 0-8.539-6.167-7.906-15.18.79-14.23 8.538-25.774 18.026-25.774 3.32 0 4.902 3.479 4.902 3.479 3.004 5.376 12.333.79 10.278-4.902-.95-2.53-3.953-9.013-14.864-9.013-22.137 0-29.095 22.454-30.043 37.317-.159 2.372-.159 4.744.158 7.116-3.163 3.795-6.8 6.957-10.436 6.957-3.48 0-5.693-3.953-4.428-12.966 1.265-8.697 2.214-15.812 2.688-19.924 2.688-18.816-20.872-18.342-20.872-18.342s-.316-11.069-9.33-11.069c-4.585 0-8.854 3.637-8.854 10.437 0 6.325 5.218 9.487 5.218 9.487-1.107 9.804-5.693 42.377-15.97 42.377-4.586 0-4.903-4.902-4.428-8.38.632-4.744 1.423-12.967 1.74-15.022.948-6.8-10.279-8.223-11.544-.633-1.265 7.907-4.585 24.193-13.915 24.193-5.534 0-8.538-6.957-8.064-15.496.79-14.39 8.539-25.458 18.026-25.458 3.32 0 4.902 3.479 4.902 3.479 2.53 5.376 12.175 1.581 10.278-4.902-.79-2.846-3.953-9.013-14.864-9.013-22.137 0-29.094 22.454-30.043 37.317-.158 2.372-.158 4.586 0 6.641-3.163 4.27-6.958 7.432-10.594 7.432-3.321 0-5.851-1.74-5.219-9.17.317-3.48 4.27-27.356 4.112-31.626-.475-7.273-3.795-10.436-11.86-10.436-8.538 0-14.863 4.428-17.551 7.116 0 0 3.953-30.044 4.743-35.894.791-6.009-10.91-6.167-11.543 0-.316 2.688-3.478 26.406-6.325 48.544C65.864 75.583 52.74 97.72 33.29 97.72c-36.843 0-19.924-80.326 14.705-80.326 8.065 0 4.428 12.966-.948 20.714-3.795 5.692 5.85 12.017 11.226 3.004 14.864-25.142 2.372-34.47-9.487-34.47-51.232 0-70.207 102.147-16.92 102.147 17.552 0 29.412-9.804 37.002-20.556-.791 6.009-1.265 10.12-1.423 10.91-.95 6.325 10.91 5.851 11.543.475.474-3.32 2.213-17.394 3.636-28.304.791-6.167 8.38-17.552 16.92-17.552 2.055 0 3.32 2.056 3.162 3.795-.316 2.056-3.953 28.778-3.795 32.732.633 11.226 8.697 13.756 16.287 13.756 6.009 0 10.91-2.846 14.863-7.273 2.689 4.427 6.8 7.273 12.492 7.273 12.808 0 17.236-9.17 17.236-9.17s1.58 9.17 12.65 9.17c22.453 0 27.671-39.056 28.778-52.18 1.265 0 9.171.474 10.594 4.901 1.265 4.27-2.688 17.868-3.004 31.941-.158 7.432 2.53 15.338 14.231 15.338 7.116 0 12.808-3.32 16.761-6.957 2.688 4.27 6.8 6.957 12.334 6.957 6.325 0 10.594-2.055 13.282-4.11-.158 1.264-.316 2.37-.474 3.636v.158c0-.158-29.57 21.189-29.57 41.27 0 7.906 3.638 12.966 12.967 12.966 18.5 0 24.35-24.825 27.039-45.223.158-.949.316-1.897.316-2.688 2.846-2.214 5.535-4.27 8.223-6.325 3.795-3.004 7.59-5.85 11.859-9.013.158.316.474.632.632.949 3.953 5.376 9.804 8.222 16.92 8.222 13.44 0 25.932-10.278 34.787-20.398 1.423 4.902 3.478 9.646 6.957 13.44 4.27 4.586 10.12 7.116 16.761 7.116 12.808 0 21.663-10.278 26.407-22.137 3.479 1.581 7.432 2.53 11.543 2.846.949 4.111 2.53 7.906 5.06 10.91 3.162 3.796 9.013 8.381 19.291 8.381s20.398-5.534 27.197-10.12l.949 1.423c3.162 3.954 9.33 8.697 19.765 8.697 18.5 0 28.779-15.18 29.253-15.812 1.423-2.53.633-6.167-1.897-7.906Zm-259.64 66.412c-1.738 0-3.003-1.107-3.003-3.321 0-10.12 15.654-23.877 15.812-23.877-1.898 13.599-7.432 27.198-12.808 27.198Zm69.892-94.874c1.423 0 1.739 1.106 2.055 1.739.633 2.214-1.581 10.594-18.5 22.295.948-11.068 7.748-24.034 16.445-24.034Zm53.762-40.006c4.901 0 .948 16.761-14.706 40.164 3.637-31.15 8.697-40.164 14.706-40.164Zm62.616 40.006c2.53 0 2.689 2.53 2.847 3.478.632 4.744-3.795 13.283-18.343 18.184 1.582-10.278 8.38-21.662 15.496-21.662Zm47.437 0c1.74 0 2.689 1.265 3.163 2.846.949 3.32-3.479 11.7-18.975 21.188.316-11.068 6.958-24.034 15.812-24.034Z" fill="#222"/></svg>
